app/client/src/assets/icons/blueprintjs/20px/office.svg

<svg xmlns="http://www.w3.org/2000/svg" xml:space="preserve" viewBox="0 0 20 20"><path fill-rule="evenodd" d="M19 6h-5V1c0-.55-.45-1-1-1H1C.45 0 0 .45 0 1v18c0 .55.45 1 1 1h4v-6h4v6h10c.55 0 1-.45 1-1V7c0-.55-.45-1-1-1zM6 12H2V8h4v4zm0-6H2V2h4v4zm6 6H8V8h4v4zm0-6H8V2h4v4zm6 11h-4v-3h4v3zm0-5h-4V8h4v4z" clip-rule="evenodd"/></svg>

<?xml version="1.0" encoding="utf-8"?>
<!-- Generator: Adobe Illustrator 18.1.0, SVG Export Plug-In . SVG Version: 6.00 Build 0)  -->
<svg version="1.1" id="Layer_1" xmlns="http://www.w3.org/2000/svg" xmlns:xlink="http://www.w3.org/1999/xlink" x="0px" y="0px"
	 viewBox="0 0 20 20" enable-background="new 0 0 20 20" xml:space="preserve">
<g id="office">
	<g>
		<path fill-rule="evenodd" clip-rule="evenodd" d="M19,6h-5V1c0-0.55-0.45-1-1-1H1C0.45,0,0,0.45,0,1v18c0,0.55,0.45,1,1,1h4v-6h4
			v6h10c0.55,0,1-0.45,1-1V7C20,6.45,19.55,6,19,6z M6,12H2V8h4V12z M6,6H2V2h4V6z M12,12H8V8h4V12z M12,6H8V2h4V6z M18,17h-4v-3h4
			V17z M18,12h-4V8h4V12z"/>
	</g>
</g>
</svg>
